X: 8364
T: Countryman's, The
R: reel
M: 4/4
K: Cdorian
|:cB|A2ce aece|dcBA GBED|CEAC EABc|dcBA GBEG|
A2ce aece|dcBA GBED|CEAC EABc|dBGB A2:|
|:ED|C2EA cEAE|CEAE cEAE|D2FA dFAF|DFAF dFAF|
C2EA cEAE|CEAE cEAE|GBdG BdGB|dGBd GBdG|
C2EA cEAE|CEAE cEAE|D2FA dFAF|DFAF dFAF|
C2EA cEAE|CEAE cEAE|GBdG BdGB|dBGB A2||
|:FA|B2df bfgf|edcB ABFE|DFBF Abcd|ecdB AcAF|
B2df bfgf|edcB ABFE|DFBF Abcd|ecAc B2:|
|:FE|DFBF dFBF|DFBF dFBF|EGBG eGBG|EGBG eGBG|
DFBF dFBF|DFBF dFBd|eAce AceA|ceAc B2:|

